X:1     %Music
T:The Stranger in Cork
B:Singing Together, Spring 1970, BBC Publications
F:http://www.folkinfo.org/songs
M:3/4     %Meter
L:1/8     %
K:G
dc |B2 G2 E2 |D2 B,2 D2 |E2 G2 A2 | G4
w:Have you heard of the Welsh-man that trav-elled to Cork,
D2 |G2 B2 d2 |d2 B2 d2 |e2 d2 B2 | A4
w:Who laughed when he list-ened to Ir-ish-men's talk?
D2 |G2 B2 d2 |d2 B2 d2 |e2 d2 B2 |A4
w:"Be-gor-ra! Be-jab-ers!" was what they would say,
dc |B2 G2 F2 |D2 B,2 D2 |E2 G2 G2 | G4 z2 |]
w:And "The top of the morn-ing" in-stead of "Good day." 